X: 1
T: Black Eyed Susie
R: reel
Z: 2019 John Chambers <jc:trillian.mit.edu>
S: http://www.traditionalmusic.co.uk/bluegrass-songbook/014786.HTM 2019-11-5
M: C|
L: 1/8
K: D
|: "D"a2ab a2ef | "G"g2ga g2a2 | "D"fedd fded | "A"B2A2 F2A2 :|
|: "D"d2e2 dded | "A"d2dc B2c2 | "D"d2e2 dded | "A"B2A2 F2A2 :|
